X:1
T: Kneeland Romp
N:
C: Play 3 times.
S: Tune is "Le Basque" by M. Marais
A:
O:
R:
M:4/4
K:G
I:speed 200
%W: A1
% voice 1 (1 lines, 33 notes)
K:G
M:4/4
L:1/16
g4 |g4 d4 e4 c4 |d4 B4 c4 A4 |B4 G4 A4 F4 |G12 g4 |g4 d4 e4 d2 c2 |d4 c2 B2 c4 B2 A2 |B4 A2 G2 D4 F4 |G12 g4 |
%W: A2
% voice 1 (1 lines, 32 notes)
g4 d4 e4 c4 |d4 B4 c4 A4 |B4 G4 A4 F4 |G12 g4 |g4 d4 e4 d2 c2 |d4 c2 B2 c4 B2 A2 |B4 A2 G2 D4 F4 |G12 d4 |
%W: B1
% voice 1 (1 lines, 30 notes)
d4 e4 d4 c4 |B4 A2 B2 G4 A2 B2 |c4 B4 A4 G4 |F4 E2 F2 D4 E2 F2 |G4 F2 G2 A4 G2 A2 |B4 G4 c4 A4 |
%W:
% voice 1 (1 lines, 22 notes)
d4 e4 f4 g4 |f12 A2 B2 |c4 B2 c2 d4 e4 |d4 c4 B4 A4 |B4 G4 E4 F4 |G12 d4 |
%W: B2
% voice 1 (1 lines, 30 notes)
d4 e4 d4 c4 |B4 A2 B2 G4 A2 B2 |c4 B4 A4 G4 |F4 E2 F2 D4 E2 F2 |G4 F2 G2 A4 G2 A2 |B4 G4 c4 A4 |
%W:
% voice 1 (1 lines, 21 notes)
d4 e4 f4 g4 |f12 A2 B2 |c4 B2 c2 d4 e4 |d4 c4 B4 A4 |B4 G4 E4 F4 |G12 ||
